src/topics/icons/zwave.svg

<?xml version="1.0" encoding="UTF-8" standalone="no"?>
<svg width="256px" height="114px" viewBox="0 0 256 114" version="1.1" xmlns="http://www.w3.org/2000/svg" xmlns:xlink="http://www.w3.org/1999/xlink" preserveAspectRatio="xMidYMid">
    <g>
        <path d="M115.7771,63.7932 L128.1671,63.7932 L131.7881,86.0792 L135.8071,63.7932 L144.4351,63.7932 L148.7641,86.0792 L152.7061,63.7932 L164.2921,63.7932 L154.8671,97.5042 L143.9531,97.5042 L140.4771,79.8842 L136.3621,97.5042 L125.8221,97.5042 L115.7771,63.7932 Z M193.498,63.8736 L206.693,63.8736 L212.003,84.3096 L217.957,63.6326 L230.508,63.6326 L217.945,97.5046 L206.105,97.5046 L193.498,63.8736 Z M233.5648,63.8737 L233.5648,97.5037 L255.9998,97.5037 L255.9998,88.8957 L245.2318,88.8957 L245.2318,84.8727 L254.9668,84.8727 L254.9668,76.1827 L245.2318,76.1827 L245.2318,72.4017 L255.8518,72.4017 L255.8518,63.8737 L233.5648,63.8737 Z M176.8033,85.3152 L180.0613,73.4882 L182.5363,85.3152 L176.8033,85.3152 Z M186.9003,63.7932 L173.2433,63.7932 L160.9693,97.5042 L173.9223,97.5042 L175.0733,92.8382 L184.5873,92.8382 L185.5873,97.5042 L198.8763,97.5042 L186.9003,63.7932 Z M96.8698,86.9646 L90.4338,97.4236 L62.4348,97.4236 L77.9628,73.3676 L63.6168,73.3676 L69.5948,63.7936 L96.8698,63.7936 L82.3068,86.9646 L96.8698,86.9646 Z M80.8708,48.9896 C63.0078,48.9896 48.5268,63.4696 48.5268,81.3326 C48.5268,99.1956 63.0078,113.6766 80.8708,113.6766 C98.7328,113.6766 113.2138,99.1956 113.2138,81.3326 C113.2138,63.4696 98.7328,48.9896 80.8708,48.9896 Z M80.135,10.642 L80.135,0 C35.845,0.196 1.13686838e-13,36.152 1.13686838e-13,80.488 C1.13686838e-13,80.69 0.014,80.889 0.016,81.091 L10.627,81.091 C10.756,42.549 41.716,11.288 80.135,10.642 Z M80.135,32.8388 L80.135,22.2038 C80.054,22.2028 79.975,22.1968 79.894,22.1968 C47.501,22.1968 21.241,48.4568 21.241,80.8498 C21.241,80.9308 21.247,81.0108 21.247,81.0908 L31.882,81.0908 C32.33,54.6378 53.681,33.2868 80.135,32.8388 Z" fill="#00396F"></path>
    </g>
</svg>

<svg height="114" preserveAspectRatio="xMidYMid" viewBox="0 0 256 114" width="256" xmlns="http://www.w3.org/2000/svg"><path d="m115.7771 63.7932h12.39l3.621 22.286 4.019-22.286h8.628l4.329 22.286 3.942-22.286h11.586l-9.425 33.711h-10.914l-3.476-17.62-4.115 17.62h-10.54zm77.7209.0804h13.195l5.31 20.436 5.954-20.677h12.551l-12.563 33.872h-11.84zm40.0668.0001v33.63h22.435v-8.608h-10.768v-4.023h9.735v-8.69h-9.735v-3.781h10.62v-8.528zm-56.7615 21.4415 3.258-11.827 2.475 11.827zm10.097-21.522h-13.657l-12.274 33.711h12.953l1.151-4.666h9.514l1 4.666h13.289zm-90.0305 23.1714-6.436 10.459h-27.999l15.528-24.056h-14.346l5.978-9.574h27.275l-14.563 23.171zm-15.999-37.975c-17.863 0-32.344 14.48-32.344 32.343s14.481 32.344 32.344 32.344c17.862 0 32.343-14.481 32.343-32.344s-14.481-32.343-32.343-32.343zm-.7358-38.3476v-10.642c-44.29.196-80.135 36.152-80.135 80.488 0 .202.014.401.016.603h10.611c.129-38.542 31.089-69.803 69.508-70.449zm0 22.1968v-10.635c-.081-.001-.16-.007-.241-.007-32.393 0-58.653 26.26-58.653 58.653 0 .081.006.161.006.241h10.635c.448-26.453 21.799-47.804 48.253-48.252z" fill="#00396f"/></svg>
